assets/Circled m/Flat/circled_m_flat.svg

<svg width="32" height="32" viewBox="0 0 32 32" fill="none" xmlns="http://www.w3.org/2000/svg">
<path d="M16 30C23.732 30 30 23.732 30 16C30 8.26801 23.732 2 16 2C8.26801 2 2 8.26801 2 16C2 23.732 8.26801 30 16 30Z" fill="#5092FF"/>
<path d="M22.4379 9.56446C22.9258 9.78883 23.2384 10.2767 23.2384 10.8137V21.5741C23.2384 22.3335 22.6228 22.9491 21.8634 22.9491C21.104 22.9491 20.4884 22.3335 20.4884 21.5741V14.0752C20.4884 13.9684 20.3631 13.9108 20.2821 13.9803L16.894 16.8846C16.3912 17.3156 15.6526 17.327 15.1368 16.9116L11.715 14.1562C11.6332 14.0904 11.5116 14.1486 11.5116 14.2536V21.5741C11.5116 22.3335 10.896 22.9491 10.1366 22.9491C9.37721 22.9491 8.7616 22.3335 8.7616 21.5741V11.1199C8.7616 10.5905 9.06547 10.1082 9.54294 9.87962C10.0204 9.65107 10.5867 9.71691 10.999 10.0489L15.8908 13.988C15.9377 14.0258 16.0048 14.0248 16.0505 13.9856L20.9685 9.76975C21.3762 9.42026 21.9501 9.34009 22.4379 9.56446Z" fill="white"/>
</svg>

<svg xmlns="http://www.w3.org/2000/svg" width="32" height="32" fill="none"><path fill="#5092FF" d="M16 30c7.732 0 14-6.268 14-14S23.732 2 16 2 2 8.268 2 16s6.268 14 14 14Z"/><path fill="#fff" d="M22.438 9.564c.488.225.8.713.8 1.25v10.76a1.375 1.375 0 1 1-2.75 0v-7.499a.125.125 0 0 0-.206-.095l-3.388 2.905a1.375 1.375 0 0 1-1.757.027l-3.422-2.756a.125.125 0 0 0-.203.098v7.32a1.375 1.375 0 1 1-2.75 0V11.12a1.375 1.375 0 0 1 2.237-1.071l4.892 3.939a.125.125 0 0 0 .16-.002l4.918-4.216c.407-.35.981-.43 1.469-.206Z"/></svg>
